X:062 
T:Gallowglass Jig, The  
B:CRE3.021 (GallÃÂÃÂÃÂÃÂ³glach)
F:file ID: cre.3/062gall_g
R:jig
Q:160
M:6/8
L:1/8
K:Am
B|c2A eBd|cAA A2B|c3 e^fg|dBG GAB|
cBA eBd|c2a e2d|cBA GAB|cAA A2:|
|:a|a3 egd|cAA A2B|c3 e^fg|dBG G2e|
[1 a2a egd|cAA Aed|cBA GAB|cAA A2:|
[2 aeg ^fdB|ecA BGE|ABc eB/c/d|cAA HA3 |]

%%%

